src/lib/packages/icons/src/assets/filled/hand-holding-dollar.svg

<svg width="24" height="24" viewBox="0 0 24 24" fill="none" xmlns="http://www.w3.org/2000/svg">
<path d="M14.035 11.036C13.675 11.396 13.221 11.625 12.73 11.71V12C12.73 12.414 12.394 12.75 11.98 12.75C11.566 12.75 11.23 12.414 11.23 12V11.708C10.198 11.513 9.38601 10.665 9.26501 9.58398C9.21901 9.17198 9.51499 8.801 9.92599 8.755C10.328 8.70601 10.709 9.00402 10.755 9.41602C10.809 9.89202 11.209 10.25 11.685 10.25H12.315C12.563 10.25 12.797 10.152 12.974 9.97498C13.152 9.79698 13.25 9.56294 13.25 9.31494C13.25 8.88594 12.958 8.51298 12.541 8.40698L11.094 8.04797C10.566 7.91397 10.094 7.60703 9.76199 7.18103C9.43299 6.76403 9.24899 6.23106 9.24899 5.68506C9.24899 4.49806 10.103 3.51002 11.229 3.29602V3C11.229 2.586 11.565 2.25 11.979 2.25C12.393 2.25 12.729 2.586 12.729 3V3.28894C13.779 3.46994 14.611 4.32202 14.734 5.41602C14.78 5.82802 14.484 6.199 14.073 6.245C13.67 6.295 13.29 5.99598 13.244 5.58398C13.19 5.10798 12.79 4.75 12.314 4.75H11.684C11.168 4.75 10.749 5.16906 10.749 5.68506C10.749 5.89406 10.818 6.097 10.943 6.255C11.075 6.425 11.252 6.54004 11.458 6.59204L12.905 6.95105C13.992 7.22605 14.749 8.19796 14.749 9.31396C14.75 9.96396 14.496 10.575 14.035 11.036ZM6 20V16C6 15.448 5.552 15 5 15H3C2.448 15 2 15.448 2 16V20C2 20.552 2.448 21 3 21H5C5.552 21 6 20.552 6 20ZM19.66 15.02C19.43 15.02 19.2 15.08 18.98 15.21L16.71 16.5699C16.5 17.7999 15.42 18.75 14.12 18.75H11C10.59 18.75 10.25 18.41 10.25 18C10.25 17.59 10.59 17.25 11 17.25H14.12C14.74 17.25 15.25 16.75 15.25 16.12C15.25 15.5 14.74 15 14.12 15H9C7.9 15 7 15.9 7 17V19C7 20.1 7.9 21 9 21H14.6C15.51 21 16.39 20.69 17.1 20.12L20.5 17.4C20.82 17.15 21 16.76 21 16.36C21 15.58 20.36 15.02 19.66 15.02Z" fill="currentColor"/>
</svg>

<svg xmlns="http://www.w3.org/2000/svg" width="24" height="24" fill="none"><path fill="currentColor" d="M14.035 11.036c-.36.36-.814.589-1.305.674V12a.75.75 0 0 1-1.5 0v-.292a2.435 2.435 0 0 1-1.965-2.124.75.75 0 0 1 1.49-.168.937.937 0 0 0 .93.834h.63a.927.927 0 0 0 .659-.275.928.928 0 0 0 .276-.66.938.938 0 0 0-.709-.908l-1.447-.359a2.46 2.46 0 0 1-1.332-.867 2.436 2.436 0 0 1 1.467-3.885V3a.75.75 0 0 1 1.5 0v.289a2.433 2.433 0 0 1 2.005 2.127.75.75 0 0 1-1.49.168.937.937 0 0 0-.93-.834h-.63a.936.936 0 0 0-.226 1.842l1.447.36a2.437 2.437 0 0 1 1.13 4.084ZM6 20v-4a1 1 0 0 0-1-1H3a1 1 0 0 0-1 1v4a1 1 0 0 0 1 1h2a1 1 0 0 0 1-1Zm13.66-4.98c-.23 0-.46.06-.68.19l-2.27 1.36a2.633 2.633 0 0 1-2.59 2.18H11c-.41 0-.75-.34-.75-.75s.34-.75.75-.75h3.12c.62 0 1.13-.5 1.13-1.13 0-.62-.51-1.12-1.13-1.12H9c-1.1 0-2 .9-2 2v2c0 1.1.9 2 2 2h5.6c.91 0 1.79-.31 2.5-.88l3.4-2.72c.32-.25.5-.64.5-1.04 0-.78-.64-1.34-1.34-1.34Z"/></svg>
